packages/ffe-icons/icons/filled/md/lists.svg

<svg xmlns="http://www.w3.org/2000/svg" height="24" viewBox="0 -960 960 960" width="24"><path d="M377.691-180.001q-25.307 0-43.038-17.731-17.73-17.73-17.73-43.037t17.73-43.038q17.731-17.73 43.038-17.73h421.54q25.307 0 43.037 17.73 17.731 17.731 17.731 43.038 0 25.307-17.731 43.037-17.73 17.731-43.037 17.731h-421.54Zm0-239.231q-25.307 0-43.038-17.731-17.73-17.73-17.73-43.037t17.73-43.037q17.731-17.731 43.038-17.731h421.54q25.307 0 43.037 17.731 17.731 17.73 17.731 43.037t-17.731 43.037q-17.73 17.731-43.037 17.731h-421.54Zm0-239.231q-25.307 0-43.038-17.73-17.73-17.731-17.73-43.038 0-25.307 17.73-43.037 17.731-17.731 43.038-17.731h421.54q25.307 0 43.037 17.731 17.731 17.73 17.731 43.037t-17.731 43.038q-17.73 17.73-43.037 17.73h-421.54Zm-216.922 0q-25.307 0-43.037-17.73-17.731-17.731-17.731-43.038 0-25.307 17.731-43.037 17.73-17.731 43.037-17.731t43.038 17.731q17.73 17.73 17.73 43.037t-17.73 43.038q-17.731 17.73-43.038 17.73Zm0 239.231q-25.307 0-43.037-17.731-17.731-17.73-17.731-43.037t17.731-43.037q17.73-17.731 43.037-17.731t43.038 17.731q17.73 17.73 17.73 43.037t-17.73 43.037q-17.731 17.731-43.038 17.731Zm0 239.231q-25.307 0-43.037-17.731-17.731-17.73-17.731-43.037t17.731-43.038q17.73-17.73 43.037-17.73t43.038 17.73q17.73 17.731 17.73 43.038 0 25.307-17.73 43.037-17.731 17.731-43.038 17.731Z"/></svg>

<svg xmlns="http://www.w3.org/2000/svg" height="24" viewBox="0 -960 960 960" width="24"><path d="M377.69-180q-25.31 0-43.04-17.73t-17.73-43.04q0-25.31 17.73-43.04t43.04-17.73h421.54q25.31 0 43.04 17.73T860-240.77q0 25.31-17.73 43.04T799.23-180H377.69Zm0-239.23q-25.31 0-43.04-17.73T316.92-480q0-25.31 17.73-43.04t43.04-17.73h421.54q25.31 0 43.04 17.73T860-480q0 25.31-17.73 43.04t-43.04 17.73H377.69Zm0-239.23q-25.31 0-43.04-17.73t-17.73-43.04q0-25.31 17.73-43.04T377.69-780h421.54q25.31 0 43.04 17.73T860-719.23q0 25.31-17.73 43.04t-43.04 17.73H377.69Zm-216.92 0q-25.31 0-43.04-17.73T100-719.23q0-25.31 17.73-43.04T160.77-780q25.31 0 43.04 17.73t17.73 43.04q0 25.31-17.73 43.04t-43.04 17.73Zm0 239.23q-25.31 0-43.04-17.73T100-480q0-25.31 17.73-43.04t43.04-17.73q25.31 0 43.04 17.73T221.54-480q0 25.31-17.73 43.04t-43.04 17.73Zm0 239.23q-25.31 0-43.04-17.73T100-240.77q0-25.31 17.73-43.04t43.04-17.73q25.31 0 43.04 17.73t17.73 43.04q0 25.31-17.73 43.04T160.77-180Z"/></svg>
